X: 25
M: C|
L: 1/8
K: Eb
V: 1
E2 (3(GFE) |\
V: 2 clef=bass middle=d
e4 | g4 e4 | b4 B4 |\
d4 B4 | e4 e4 | g4 e4 |
b4 B4 | d2e2 f2F2 | B4 :|\
e4 f4 | g4 a4 | g2f2 e2B2 E4 e4 |\
g2a2 b2B2 | e4 |]\
e4 |
g4 a4 | g4 d4 |\
e4 B4 | E4 e4 | g4 a4 |
g4 g4 | e4 e4 | B4 |]\
d4 e4 | B4 e4 | g4 a4 |\
g4 e4 | g2a2 b2B2 | e4 |]


